X: 26582
T: Mick Flaherty's
R: reel
M: 4/4
K: Eminor
|:BEGE BEGE|AD D2 ADFA|BEGE BEGB|AFDE FE E2|
BE E2 BEGB|AF F2 DAFD|G2 AG F2 dB|AFDE FE E2:|
|:G2 DG BedB|AF F2 DAFD|G3A BedB|AFDE FE E2|
G2 DG BedB|AF F2 DAFD|G2 AG F2 dB|AFDE FE E2:|

